_assets/images/gallery/s06e01-01.svg

<svg xmlns="http://www.w3.org/2000/svg" width="500" height="550" viewBox="0 0 500 550"><path d="M215.51 30.26s22.93-8.25 62.34 0l7.28 16.36 61.56 28.11L250 182.77 150.37 69.5l58.1-22.88" fill="#fff" stroke="#262521" stroke-linecap="round" stroke-linejoin="round" stroke-width="3"/><path d="M215.51 30.26S231.37 52.83 246 64l-31.47 21.35s-12.33-34.14-8.44-41.68a66.91 66.91 0 019.42-13.41zm62.34 0S262 52.83 247.4 64l31.42 21.33s13.93-33 10-40.57-10.97-14.5-10.97-14.5zM133.56 444.84l-.94 45.48s5.09-19.77 7.63-20.13c1.27-.18 1.63 26.16 3.14 26 .66-.09 3.76 2 4.36-.65 1-4.55 3.26-22.87 4.63-23 2.47-.31 4 19.94 6.93 19.6 4.89-.55 12.26-6.81 18.51-7.42 31.16-3 90.14 6.09 127.3 1s55.32 5.91 55.32 5.91l.37-54.25z" fill="#fff" stroke="#262521" stroke-linecap="round" stroke-linejoin="round" stroke-width="3"/><path d="M372.14 288.75q-.27 61.74-.62 123.46c-.81 9-2.68 16.41-3.55 25.45-1 10.07 1.34 17-1.5 25.63-.59 1.77-2 1.67-3.35 1.43a28.5 28.5 0 01-6.45-2.26c-1.22-.55-4.45 1.85-5.82 1.18-2.55-1.22-3.43-5.6-6.44-6.91s-8.37 1.94-11.81.93c-4.89-1.46-8.08-6.94-13.63-6.82-2.58.05-7.62 1.7-10.24 2-4.4.43-5.07 2.6-9.45 3.42s-12.76.33-17.12 1.36-6.29-1.07-10.21-.12c-1.86.45-6.18 6.66-8 6.61-7.37-.21-14.12.76-19.23.39-2.39-.17-7.75 1-9.69.4-3.91-1.22-3.92-4.59-7.5-5.34s-8.4.8-11.52 0c-4.07-1.09-7.82-2.2-11.57-3.16-3.49-.9-6.51 1.17-10.23.66-4.44-.61-9.67-3.69-15.21-3.34-.94 0-3.77-2.5-7.38-1.55-1.92.5-3.83 4.23-6.3 4.87-3 .79-6.41 1.66-10 2.53-2.55.62-4.11 3.57-6.85 4.16-2 .44-5.2-1.48-7.29-1.08-2.53.49-5.09.94-7.65 1.33-5.23.6-5.68.28-6.62-4.82-1.35-11.26 1.94-18.53.53-29.31-6.15-46.82-1.39-94.38-3.6-141.53-1.42 2.82-2.94 5.6-4.29 8.46-2.37 10.67-17.5 9.3-11.81 16.18 11.11 7.95 6.41 21.38 5.15 32.56-.25 3.15-1.35 6.27-.37 9.58.51 8.43-3.19 16.94-4.38 25.31-1.5 8-2.61 15.83-1.54 23.93a5.1 5.1 0 01-1.13 3.3c-5.71 6.27-7.75 14-9.19 22.06-.57 3.17-.61 3-3.74 2.05-1.33-.38-6.23.91-7.34.7-2.23-.42-4.5-3.2-6.76-3.44-3.81-.4-4.73-1.85-8.54-1.68-2.08.1-6.77 4.36-8.82 4.64-2.31.32-4.9-2-7.14-1.4-1.39.34-2.11 0-2.41-1.47-2-7.76-2.18-16.67-8.49-22.43a6.66 6.66 0 01-1.33-3.22 144.54 144.54 0 01-2.71-33.4c-1.91-63 2.6-126.93 26.19-186 13.61-35.43 24.56-73.32 48.07-103.67 27.32-18.2 60-23.76 90.46-34.78.8-.26 13.28 30.47 43 30.47s41.13-31.78 44.8-30.25c29.12 10.5 61 14.41 87.44 31.59 15.94 14.59 21.63 38 30.45 57.2 27.81 67.49 58 137.4 51.05 212.08-1.19 18.66-.23 37.45-3.28 56-.49 4.66-5.21 7.09-5.56 11.78-1.22 5.28-2.08 10.65-2.91 16-.4 2.6-.41 2.82-3.08 2.32-2.12-.45-4 1.59-5.91.88-1.11-.42-2.22-3.56-3.31-4a30.73 30.73 0 00-9.28-2.36c-1.86-.13-5.56 1.93-7.42 2-2 .06-3 2.49-5 2.8s-5-1.5-6.92-.9c-8.34-.14-8.13-15.55-11.44-21.4-6.28-7.37-3.61-9-5.33-17.63-.9-9.7-4.68-20.27.79-29.27 2-3.53 1.86-7 .51-10.65-4.9-11.29-7.4-23.42-10.45-35.3-1.07-4.3-1.31-8.49 1.61-12.33 1.51-7.24-10.43-8.68-10.93-15.93z" fill="#262521" stroke="#262521" stroke-linecap="round" stroke-linejoin="round" stroke-width="3"/><path d="M73.89 403.5v20.47m-9.65-20.45l.99 20.43m19.15-20.42l-1.48 20.41m11.59-18.25l-4.14 20.04m-35-20.83l2.04 20.36M424.82 402.38v20.46m-10.11-20.41l1.9 20.37m18.69-20.39l-1.48 20.41m11.59-18.25l-4.14 20.04m-36.39-20.7l3.82 20.1M247.31 435.04v26.73m11.06-26.73v26.21m11.06-26.21v18.84m11.06-18.84v18.18m11.07-18.68v17.89m11.06-17.89v17.5m11.55-17.5v14.87m10.57-14.37v14.37m-153.87-14.37v12.24M192 435.04v17.53m-10.84-17.53v14.63m21.9-13.63v17.84m-66.95-16.83l1.15 20.43m9.79-21.92l1.39 21.92m10.87-22.44v20.46m54.81-19.46v20.46m11.06-20.46v20.46m11.06-21.46v26.73m99.93-25.72l-.73 18.37m12.04-17.36l-1.23 17.36m12.09-16.37l-.82 20.44M292.98 50.26l7.31 2.55m-53.62 29.93v8.33m9.12-9.07l.68 7.97m7.26-10.66l2.01 8.24m5.22-11.64l3.41 7.31m3.07-12.09l4.98 6.05m1.36-12.53l6.36 4.4M288.39 57l7.81 3.4m-95.53-10.12l-7.26 2.41M238.12 82l-1 7.97m-7.61-10.13l-1.9 7.71m-5-11.64l-3.53 7.27m-3.27-12.05l-4.97 5.75m-.98-11.7l-6.26 3.95M204.95 57l-7.51 3.27" opacity=".5" fill="none" stroke="#636363" stroke-linecap="round" stroke-linejoin="round" stroke-width="2"/><path d="M299.49 77.47l-24.87 17s17.22-2.7 24.87-17zM191.68 60.4s6.37 12.16 10.85 15.51c0 0-9.91-4.3-10.85-15.51zm164.24 8.76s-10.66-1.51-12.92 6.45c0 0 8.63-6.61 12.92-6.45zM162.1 126.7l-4.73 4.45 3.48 1.12s-.97-.42 1.25-5.57zm-6.68 6.3s-2.78 3.35-2.78 5.43 7.1-2.71 7.1-2.71-3.62-1.22-4.32-2.72zm7.94 6.65s-10.72 3.2-10.72 7.65 3.06-2.92 10.72-7.65zm0 3.35s-7.94 6.12-7.17 8.21 7.17-8.21 7.17-8.21zm3.76 1.16s-9.12 6.26-8.36 10.24zm3.88 2.03c-3.89 1.81-9.74 8.07-9.6 9.05s7.93-2.23 10.44-2.23 3.07-8.63-.84-6.82zm2.83 9.23s-6.85 2.05-9.36 1.77 6.89 3.57 9.36-1.77zM102.93 283s5.3 2.49 6.17 4.77 2.38-2.83-6.17-4.77zm-2.28 1.72s4.7 5.53 5.71 5.09-2.13-4.98-5.71-5.09zm-4.87 1.52s5.57 6.39 7.82 6.5-3.92-6.82-7.82-6.5zM92 288.33c-3.28 0 7.25 6.9 8.66 6.9s-6.29-6.87-8.66-6.9zm5.73 8.67s-6-6.6-9.42-5.74-.85 4 2 4 7.69 4.97 7.42 1.74zm.01 4.18s-8.67-.21-9.76-.75 4.46 4.44 9.76.75zm-51.02 60.07s-4 1.39-4.65 2.67-1.8-1.58 4.65-2.67zm1.72.97s-3.54 3.09-4.31 2.85 1.61-2.79 4.31-2.85zm3.68.85s-4.21 3.58-5.91 3.64 2.96-3.82 5.91-3.64zM258.25 392l4.94 3.82s-3.33 1.36-5.55 0 .61-3.82.61-3.82zm2.96-1.82s4.94 2.71 5.07 4.07-4.57-.49-5.07-4.07zm3.21-1.11l5.31 4.08s-2.1-5.15-5.31-4.08zm2.66-1.35s3.38.88 3.8 2.9c0 0 1.35-4.06-3.8-2.9zm-128.08 18a23.88 23.88 0 00-.21 4.36c.21 1.47-6.71-2.84.21-4.36zm1.83.53s-.19 4.52.58 4.77a78.17 78.17 0 0010.21.67c.88-.18 1.3-1.67 0-3.26-2.07-1.13-7.19-2.1-10.79-2.18zm12.55 2.32s1.41 3.1.45 3.68 7.53-1.25-.45-3.68zm200.16-140.28s4.17 9 4.17 10.36 1.04-10.29-4.17-10.36zm0 6.37l-9.73 13.41s11.63-7.15 9.73-13.41zm93.9 81.21s9.88 3.41 8.92 4.57-8.92-4.57-8.92-4.57zm-4.68.66s11.35 3.47 10.4 5.69zm-4.85 1.12c4.85 1 12.13 4.49 12 5s-9.88-1.24-13-1.24-3.85-4.76 1-3.76zm-3.51 5.13s8.53 1.14 11.65 1-8.58 1.97-11.65-1z" fill="#d2d2d2"/></svg>

<svg xmlns="http://www.w3.org/2000/svg" width="500" height="550" viewBox="0 0 500 550"><path d="M215.51 30.26s22.93-8.25 62.34 0l7.28 16.36 61.56 28.11L250 182.77 150.37 69.5l58.1-22.88" fill="#fff" stroke="#262521" stroke-linecap="round" stroke-linejoin="round" stroke-width="3"/><path d="M215.51 30.26S231.37 52.83 246 64l-31.47 21.35s-12.33-34.14-8.44-41.68a66.91 66.91 0 019.42-13.41zM277.85 30.26S262 52.83 247.4 64l31.42 21.33s13.93-33 10-40.57-10.97-14.5-10.97-14.5zM133.56 444.84l-.94 45.48s5.09-19.77 7.63-20.13c1.27-.18 1.63 26.16 3.14 26 .66-.09 3.76 2 4.36-.65 1-4.55 3.26-22.87 4.63-23 2.47-.31 4 19.94 6.93 19.6 4.89-.55 12.26-6.81 18.51-7.42 31.16-3 90.14 6.09 127.3 1s55.32 5.91 55.32 5.91l.37-54.25z" fill="#fff" stroke="#262521" stroke-linecap="round" stroke-linejoin="round" stroke-width="3"/><path d="M372.14 288.75q-.27 61.74-.62 123.46c-.81 9-2.68 16.41-3.55 25.45-1 10.07 1.34 17-1.5 25.63-.59 1.77-2 1.67-3.35 1.43a28.5 28.5 0 01-6.45-2.26c-1.22-.55-4.45 1.85-5.82 1.18-2.55-1.22-3.43-5.6-6.44-6.91s-8.37 1.94-11.81.93c-4.89-1.46-8.08-6.94-13.63-6.82-2.58.05-7.62 1.7-10.24 2-4.4.43-5.07 2.6-9.45 3.42s-12.76.33-17.12 1.36-6.29-1.07-10.21-.12c-1.86.45-6.18 6.66-8 6.61-7.37-.21-14.12.76-19.23.39-2.39-.17-7.75 1-9.69.4-3.91-1.22-3.92-4.59-7.5-5.34s-8.4.8-11.52 0c-4.07-1.09-7.82-2.2-11.57-3.16-3.49-.9-6.51 1.17-10.23.66-4.44-.61-9.67-3.69-15.21-3.34-.94 0-3.77-2.5-7.38-1.55-1.92.5-3.83 4.23-6.3 4.87-3 .79-6.41 1.66-10 2.53-2.55.62-4.11 3.57-6.85 4.16-2 .44-5.2-1.48-7.29-1.08-2.53.49-5.09.94-7.65 1.33-5.23.6-5.68.28-6.62-4.82-1.35-11.26 1.94-18.53.53-29.31-6.15-46.82-1.39-94.38-3.6-141.53-1.42 2.82-2.94 5.6-4.29 8.46-2.37 10.67-17.5 9.3-11.81 16.18 11.11 7.95 6.41 21.38 5.15 32.56-.25 3.15-1.35 6.27-.37 9.58.51 8.43-3.19 16.94-4.38 25.31-1.5 8-2.61 15.83-1.54 23.93a5.1 5.1 0 01-1.13 3.3c-5.71 6.27-7.75 14-9.19 22.06-.57 3.17-.61 3-3.74 2.05-1.33-.38-6.23.91-7.34.7-2.23-.42-4.5-3.2-6.76-3.44-3.81-.4-4.73-1.85-8.54-1.68-2.08.1-6.77 4.36-8.82 4.64-2.31.32-4.9-2-7.14-1.4-1.39.34-2.11 0-2.41-1.47-2-7.76-2.18-16.67-8.49-22.43a6.66 6.66 0 01-1.33-3.22 144.54 144.54 0 01-2.71-33.4c-1.91-63 2.6-126.93 26.19-186 13.61-35.43 24.56-73.32 48.07-103.67 27.32-18.2 60-23.76 90.46-34.78.8-.26 13.28 30.47 43 30.47s41.13-31.78 44.8-30.25c29.12 10.5 61 14.41 87.44 31.59 15.94 14.59 21.63 38 30.45 57.2 27.81 67.49 58 137.4 51.05 212.08-1.19 18.66-.23 37.45-3.28 56-.49 4.66-5.21 7.09-5.56 11.78-1.22 5.28-2.08 10.65-2.91 16-.4 2.6-.41 2.82-3.08 2.32-2.12-.45-4 1.59-5.91.88-1.11-.42-2.22-3.56-3.31-4a30.73 30.73 0 00-9.28-2.36c-1.86-.13-5.56 1.93-7.42 2-2 .06-3 2.49-5 2.8s-5-1.5-6.92-.9c-8.34-.14-8.13-15.55-11.44-21.4-6.28-7.37-3.61-9-5.33-17.63-.9-9.7-4.68-20.27.79-29.27 2-3.53 1.86-7 .51-10.65-4.9-11.29-7.4-23.42-10.45-35.3-1.07-4.3-1.31-8.49 1.61-12.33 1.51-7.24-10.43-8.68-10.93-15.93z" fill="#262521" stroke="#262521" stroke-linecap="round" stroke-linejoin="round" stroke-width="3"/><g opacity=".5" fill="none" stroke="#636363" stroke-linecap="round" stroke-linejoin="round" stroke-width="2"><path d="M73.89 403.5v20.47M64.24 403.52l.99 20.43M84.38 403.53l-1.48 20.41M94.49 405.69l-4.14 20.04M55.35 404.9l2.04 20.36"/></g><g opacity=".5" fill="none" stroke="#636363" stroke-linecap="round" stroke-linejoin="round" stroke-width="2"><path d="M424.82 402.38v20.46M414.71 402.43l1.9 20.37M435.3 402.41l-1.48 20.41M445.41 404.57l-4.14 20.04M404.88 403.91l3.82 20.1"/></g><g opacity=".5" fill="none" stroke="#636363" stroke-linecap="round" stroke-linejoin="round" stroke-width="2"><path d="M247.31 435.04v26.73M258.37 435.04v26.21M269.43 435.04v18.84M280.49 435.04v18.18M291.56 434.54v17.89M302.62 434.54v17.5M314.17 434.54v14.87M324.74 435.04v14.37M170.87 435.04v12.24M192 435.04v17.53M181.16 435.04v14.63M203.06 436.04v17.84M136.11 437.05l1.15 20.43M147.05 435.56l1.39 21.92M159.31 435.04v20.46M214.12 436.04v20.46M225.18 436.04v20.46M236.24 435.04v26.73M336.17 436.05l-.73 18.37M347.48 437.06l-1.23 17.36M358.34 438.05l-.82 20.44"/></g><g opacity=".5" fill="none" stroke="#636363" stroke-linecap="round" stroke-linejoin="round" stroke-width="2"><path d="M292.98 50.26l7.31 2.55M246.67 82.74v8.33M255.79 82l.68 7.97M263.73 79.31l2.01 8.24M270.96 75.91l3.41 7.31M277.44 71.13l4.98 6.05M283.78 64.65l6.36 4.4M288.39 57l7.81 3.4M200.67 50.28l-7.26 2.41M238.12 82l-1 7.97M229.51 79.84l-1.9 7.71M222.61 75.91l-3.53 7.27M215.81 71.13l-4.97 5.75M209.86 65.18l-6.26 3.95M204.95 57l-7.51 3.27"/></g><path d="M299.49 77.47l-24.87 17s17.22-2.7 24.87-17zM191.68 60.4s6.37 12.16 10.85 15.51c0 0-9.91-4.3-10.85-15.51zM355.92 69.16s-10.66-1.51-12.92 6.45c0 0 8.63-6.61 12.92-6.45zM162.1 126.7l-4.73 4.45 3.48 1.12s-.97-.42 1.25-5.57zM155.42 133s-2.78 3.35-2.78 5.43 7.1-2.71 7.1-2.71-3.62-1.22-4.32-2.72zM163.36 139.65s-10.72 3.2-10.72 7.65 3.06-2.92 10.72-7.65zM163.36 143s-7.94 6.12-7.17 8.21 7.17-8.21 7.17-8.21zM167.12 144.16s-9.12 6.26-8.36 10.24zM171 146.19c-3.89 1.81-9.74 8.07-9.6 9.05s7.93-2.23 10.44-2.23 3.07-8.63-.84-6.82zM173.83 155.42s-6.85 2.05-9.36 1.77 6.89 3.57 9.36-1.77zM102.93 283s5.3 2.49 6.17 4.77 2.38-2.83-6.17-4.77zM100.65 284.72s4.7 5.53 5.71 5.09-2.13-4.98-5.71-5.09zM95.78 286.24s5.57 6.39 7.82 6.5-3.92-6.82-7.82-6.5zM92 288.33c-3.28 0 7.25 6.9 8.66 6.9s-6.29-6.87-8.66-6.9zM97.73 297s-6-6.6-9.42-5.74-.85 4 2 4 7.69 4.97 7.42 1.74zM97.74 301.18s-8.67-.21-9.76-.75 4.46 4.44 9.76.75zM46.72 361.25s-4 1.39-4.65 2.67-1.8-1.58 4.65-2.67zM48.44 362.22s-3.54 3.09-4.31 2.85 1.61-2.79 4.31-2.85zM52.12 363.07s-4.21 3.58-5.91 3.64 2.96-3.82 5.91-3.64zM258.25 392l4.94 3.82s-3.33 1.36-5.55 0 .61-3.82.61-3.82zM261.21 390.18s4.94 2.71 5.07 4.07-4.57-.49-5.07-4.07zM264.42 389.07l5.31 4.08s-2.1-5.15-5.31-4.08zM267.08 387.72s3.38.88 3.8 2.9c0 0 1.35-4.06-3.8-2.9zM139 405.72a23.88 23.88 0 00-.21 4.36c.21 1.47-6.71-2.84.21-4.36zM140.83 406.25s-.19 4.52.58 4.77a78.17 78.17 0 0010.21.67c.88-.18 1.3-1.67 0-3.26-2.07-1.13-7.19-2.1-10.79-2.18zM153.38 408.57s1.41 3.1.45 3.68 7.53-1.25-.45-3.68zM353.54 268.29s4.17 9 4.17 10.36 1.04-10.29-4.17-10.36zM353.54 274.66l-9.73 13.41s11.63-7.15 9.73-13.41zM447.44 355.87s9.88 3.41 8.92 4.57-8.92-4.57-8.92-4.57zM442.76 356.53s11.35 3.47 10.4 5.69zM437.91 357.65c4.85 1 12.13 4.49 12 5s-9.88-1.24-13-1.24-3.85-4.76 1-3.76zM434.4 362.78s8.53 1.14 11.65 1-8.58 1.97-11.65-1z" fill="#d2d2d2"/></svg>
